build/assets/img/svg/icon-work.svg

<svg width="24" height="24" viewBox="0 0 24 24" fill="none" xmlns="http://www.w3.org/2000/svg">
<path d="M1 11.5952V21.5C1 21.7761 1.22386 22 1.5 22H22.5C22.7761 22 23 21.7761 23 21.5V11.5952M1 11.5952V7.11905C1 6.8429 1.22386 6.61905 1.5 6.61905H5.58333M1 11.5952L1.17636 11.9434C2.19275 13.9498 4.25086 15.2143 6.5 15.2143V15.2143M23 11.5952V7.11905C23 6.84291 22.7761 6.61905 22.5 6.61905H18.4167M23 11.5952L22.8236 11.9434C21.8073 13.9498 19.7491 15.2143 17.5 15.2143V15.2143M6.5 15.2143V16.9762C6.5 17.2523 6.72386 17.4762 7 17.4762H8.29167C8.56781 17.4762 8.79167 17.2523 8.79167 16.9762V15.2143M6.5 15.2143H8.79167M8.79167 15.2143H15.2083M17.5 15.2143V16.9762C17.5 17.2523 17.2761 17.4762 17 17.4762H15.7083C15.4322 17.4762 15.2083 17.2523 15.2083 16.9762V15.2143M17.5 15.2143H15.2083M5.58333 6.61905L6.86136 4.09619C7.20199 3.42379 7.89173 3 8.64549 3H15.3545C16.1083 3 16.798 3.42379 17.1386 4.09619L18.4167 6.61905M5.58333 6.61905H18.4167" stroke="#D6516B" stroke-width="1.5"/>
</svg>

<svg width="24" height="24" fill="none" xmlns="http://www.w3.org/2000/svg"><path d="M1 11.595V21.5a.5.5 0 00.5.5h21a.5.5 0 00.5-.5v-9.905m-22 0V7.12a.5.5 0 01.5-.5h4.083M1 11.595l.176.348A5.968 5.968 0 006.5 15.214v0M23 11.595V7.12a.5.5 0 00-.5-.5h-4.083M23 11.595l-.176.348a5.968 5.968 0 01-5.324 3.271v0m-11 0v1.762a.5.5 0 00.5.5h1.292a.5.5 0 00.5-.5v-1.762m-2.292 0h2.292m0 0h6.416m2.292 0v1.762a.5.5 0 01-.5.5h-1.292a.5.5 0 01-.5-.5v-1.762m2.292 0h-2.292M5.583 6.62l1.278-2.523A2 2 0 018.645 3h6.71a2 2 0 011.784 1.096l1.278 2.523m-12.834 0h12.834" stroke="#D6516B" stroke-width="1.5"/></svg>
